wp-content/plugins/google-analytics-for-wordpress/lite/assets/vue/img/yir-icon-mobile.svg

<svg width="29" height="48" viewBox="0 0 29 48" fill="currentColor" xmlns="http://www.w3.org/2000/svg">
    <path fill-rule="evenodd" clip-rule="evenodd" d="M22.9091 0H5.45455C2.44364 0 0 2.44364 0 5.45455V42.5455C0 45.5564 2.44364 48 5.45455 48H22.9091C25.92 48 28.3636 45.5564 28.3636 42.5455V5.45455C28.3636 2.44364 25.92 0 22.9091 0ZM14.1818 45.8182C12.3709 45.8182 10.9091 44.3563 10.9091 42.5454C10.9091 40.7345 12.3709 39.2727 14.1818 39.2727C15.9927 39.2727 17.4545 40.7345 17.4545 42.5454C17.4545 44.3563 15.9927 45.8182 14.1818 45.8182ZM4.36364 37.0909H24V6.54541H4.36364V37.0909Z" fill="#FFFFFF"/>
</svg>

<svg width="29" height="48" fill="currentColor" xmlns="http://www.w3.org/2000/svg"><path fill-rule="evenodd" clip-rule="evenodd" d="M22.91 0H5.454A5.457 5.457 0 000 5.455v37.09A5.457 5.457 0 005.455 48h17.454a5.456 5.456 0 005.455-5.455V5.455A5.457 5.457 0 0022.909 0zm-8.728 45.818a3.268 3.268 0 01-3.273-3.273 3.268 3.268 0 013.273-3.272 3.268 3.268 0 013.272 3.272 3.268 3.268 0 01-3.272 3.273zm-9.818-8.727H24V6.545H4.364v30.546z" fill="#FFF"/></svg>
